!! Aleut songs
!! From: Shirley A. Hauck,
!! "Extinction and Reconstruction of Aleut Music and Dance"
!! PhD dissertation, University of Pittsburgh, 1986.
!! page 216
!! Putlax Game Song
**kern	**silbe
*clefG2	*
*M4/4	*M4/4
*>[A,A]	*>[A,A]
*>A	*>A
=1-	=1-
4A	chai-
4d	-a-
4d	-cha
8d	le-
8d	-le
=2	=2
4c#	lo-
4c#	-le-
4e	-lo
4r	.
=3	=3
4d	chai-
4A	-a-
4A	-cha
8A	le-
8A	-le
=4	=4
4B	lo-
4c#	-le-
16.d	-lo
32e	chai-
8d	-a-
4d	-cha
=5	=5
4A	.
8d	.
8d	.
8d	.
8d	.
8d	.
8d	.
=6	=6
8d	.
8d	.
4d	.
4d	.
8c#	.
8d	.
4e	.
=7	=7
4d	.
4A	.
4A	.
8A	.
8A	.
=8	=8
4B	.
4c#	.
16.d	.
32e	.
8d	.
4d	.
==:||	==:||
*-	*-
